X:871
T:The Irish girl
R:Slip Jig
O:Ireland
B:O'Neill's 1137
S:O'Neill's 1137
Z:Transcription:Stephen Foy, chords:Mike Long
M:9/8
L:1/8
K:D
"A"c2A AEA AEA|"A"cBc Ace "G"dcB|\
"A"~c2A AEA AEA|"G"BAB dge dBG:|
"A"cde efd e2d|"A"cde efd "G"ged|\
"A"cde efd efg|"D"agf {a}"G"gfe dcB|
"A"cde efd e2d|"A"cde efd "G"ged|\
"A"cde efd efg|"D"agf {a}"G"gfe "(D)"ded|]
